icons/square/48/chrome-fgbjpbdfegnodokpoejnbhnblcojccal-Default.svg.svg

<svg xmlns="http://www.w3.org/2000/svg" viewBox="0 0 48 48">
 <defs>
  <linearGradient id="linearGradient3764" gradientUnits="userSpaceOnUse" gradientTransform="matrix(1 0 0 1 -48 0.002)" x2="47" x1="1">
   <stop style="stop-color:#27ae60;stop-opacity:1"/>
   <stop offset="1" style="stop-color:#2abe69;stop-opacity:1"/>
  </linearGradient>
 </defs>
 <g>
  <path d="m 1 43 l 0 0.25 c 0 2.216 1.784 4 4 4 l 38 0 c 2.216 0 4 -1.784 4 -4 l 0 -0.25 c 0 2.216 -1.784 4 -4 4 l -38 0 c -2.216 0 -4 -1.784 -4 -4 z m 0 0.5 l 0 0.5 c 0 2.216 1.784 4 4 4 l 38 0 c 2.216 0 4 -1.784 4 -4 l 0 -0.5 c 0 2.216 -1.784 4 -4 4 l -38 0 c -2.216 0 -4 -1.784 -4 -4 z" style="opacity:0.02"/>
  <path d="m 1 43.25 l 0 0.25 c 0 2.216 1.784 4 4 4 l 38 0 c 2.216 0 4 -1.784 4 -4 l 0 -0.25 c 0 2.216 -1.784 4 -4 4 l -38 0 c -2.216 0 -4 -1.784 -4 -4 z" style="opacity:0.05"/>
  <path d="m 1 43 l 0 0.25 c 0 2.216 1.784 4 4 4 l 38 0 c 2.216 0 4 -1.784 4 -4 l 0 -0.25 c 0 2.216 -1.784 4 -4 4 l -38 0 c -2.216 0 -4 -1.784 -4 -4 z" style="opacity:0.1"/>
 </g>
 <rect rx="4" transform="matrix(0 -1 1 0 0 0)" x="-47" height="46" y="1" width="46" style="fill:url(#linearGradient3764);fill-opacity:1"/>
 <g>
  <g transform="matrix(1 0 0 1 0 -1004.36)">
   <path d="m 1 1043.36 0 4 c 0 2.216 1.784 4 4 4 l 38 0 c 2.216 0 4 -1.784 4 -4 l 0 -4 c 0 2.216 -1.784 4 -4 4 l -38 0 c -2.216 0 -4 -1.784 -4 -4 z" style="opacity:0.1"/>
  </g>
 </g>
 <path d="m 13 14 0 6 22 0 0 -6 -22 0 z m 0 8 0 6 18 0 0 -6 -18 0 z m 0 8 0 6 22 0 0 -6 -22 0 z" style="fill:#000;fill-opacity:0.118;stroke:none;fill-rule:nonzero"/>
 <path d="m 13 13 l 0 6 l 22 0 l 0 -6 l -22 0 z m 0 8 l 0 6 l 18 0 l 0 -6 l -18 0 z m 0 8 l 0 6 l 22 0 l 0 -6 l -22 0 z" style="fill:#f9f9f9;fill-opacity:1;stroke:none;fill-rule:nonzero"/>
</svg>

<?xml version="1.0" encoding="UTF-8" standalone="no"?>
<svg
   xmlns:dc="http://purl.org/dc/elements/1.1/"
   xmlns:cc="http://creativecommons.org/ns#"
   xmlns:rdf="http://www.w3.org/1999/02/22-rdf-syntax-ns#"
   xmlns:svg="http://www.w3.org/2000/svg"
   xmlns="http://www.w3.org/2000/svg"
   xmlns:sodipodi="http://sodipodi.sourceforge.net/DTD/sodipodi-0.dtd"
   xmlns:inkscape="http://www.inkscape.org/namespaces/inkscape"
   viewBox="0 0 48 48"
   id="svg2"
   version="1.1"
   inkscape:version="0.91 r13725"
   sodipodi:docname="chrome-fgbjpbdfegnodokpoejnbhnblcojccal-Default.svg.svg">
  <metadata
     id="metadata29">
    <rdf:RDF>
      <cc:Work
         rdf:about="">
        <dc:format>image/svg+xml</dc:format>
        <dc:type
           rdf:resource="http://purl.org/dc/dcmitype/StillImage" />
      </cc:Work>
    </rdf:RDF>
  </metadata>
  <sodipodi:namedview
     pagecolor="#ffffff"
     bordercolor="#666666"
     borderopacity="1"
     objecttolerance="10"
     gridtolerance="10"
     guidetolerance="10"
     inkscape:pageopacity="0"
     inkscape:pageshadow="2"
     inkscape:window-width="734"
     inkscape:window-height="480"
     id="namedview27"
     showgrid="false"
     inkscape:zoom="9.8333333"
     inkscape:cx="18.98264"
     inkscape:cy="18.004996"
     inkscape:window-x="404"
     inkscape:window-y="144"
     inkscape:window-maximized="0"
     inkscape:current-layer="svg2" />
  <defs
     id="defs4">
    <linearGradient
       x2="47"
       gradientTransform="matrix(1 0 0 1 -48 0.002)"
       id="linearGradient3764"
       x1="1"
       gradientUnits="userSpaceOnUse">
      <stop
         style="stop-color:#27ae60;stop-opacity:1"
         id="stop7" />
      <stop
         style="stop-color:#2abe69;stop-opacity:1"
         offset="1"
         id="stop9" />
    </linearGradient>
  </defs>
  <g
     id="g11">
    <path
       style="opacity:0.02"
       d="m 1 43 l 0 0.25 c 0 2.216 1.784 4 4 4 l 38 0 c 2.216 0 4 -1.784 4 -4 l 0 -0.25 c 0 2.216 -1.784 4 -4 4 l -38 0 c -2.216 0 -4 -1.784 -4 -4 z m 0 0.5 l 0 0.5 c 0 2.216 1.784 4 4 4 l 38 0 c 2.216 0 4 -1.784 4 -4 l 0 -0.5 c 0 2.216 -1.784 4 -4 4 l -38 0 c -2.216 0 -4 -1.784 -4 -4 z"
       id="path13" />
    <path
       style="opacity:0.05"
       d="m 1 43.25 l 0 0.25 c 0 2.216 1.784 4 4 4 l 38 0 c 2.216 0 4 -1.784 4 -4 l 0 -0.25 c 0 2.216 -1.784 4 -4 4 l -38 0 c -2.216 0 -4 -1.784 -4 -4 z"
       id="path15" />
    <path
       style="opacity:0.1"
       d="m 1 43 l 0 0.25 c 0 2.216 1.784 4 4 4 l 38 0 c 2.216 0 4 -1.784 4 -4 l 0 -0.25 c 0 2.216 -1.784 4 -4 4 l -38 0 c -2.216 0 -4 -1.784 -4 -4 z"
       id="path17" />
  </g>
  <rect
     width="46"
     style="fill:url(#linearGradient3764);fill-opacity:1"
     rx="4"
     height="46"
     x="-47"
     y="1"
     transform="matrix(0 -1 1 0 0 0)"
     id="rect19" />
  <g
     id="g21">
    <g
       transform="matrix(1 0 0 1 0 -1004.36)"
       id="g23">
      <path
         style="opacity:0.1"
         d="m 1 1043.36 0 4 c 0 2.216 1.784 4 4 4 l 38 0 c 2.216 0 4 -1.784 4 -4 l 0 -4 c 0 2.216 -1.784 4 -4 4 l -38 0 c -2.216 0 -4 -1.784 -4 -4 z"
         id="path25" />
    </g>
  </g>
  <path
     style="fill:#000000;fill-opacity:0.11799999;fill-rule:nonzero;stroke:none"
     d="m 13,14 0,6 22,0 0,-6 -22,0 z m 0,8 0,6 18,0 0,-6 -18,0 z m 0,8 0,6 22,0 0,-6 -22,0 z"
     id="rect25"
     inkscape:connector-curvature="0" />
  <path
     style="fill:#f9f9f9;fill-opacity:1;fill-rule:nonzero;stroke:none"
     d="M 13 13 L 13 19 L 35 19 L 35 13 L 13 13 z M 13 21 L 13 27 L 31 27 L 31 21 L 13 21 z M 13 29 L 13 35 L 35 35 L 35 29 L 13 29 z "
     id="rect27" />
</svg>
